src/images/mesh-icon/image_computer.svg

<svg height="78" viewBox="0 0 104 78" width="104" xmlns="http://www.w3.org/2000/svg" xmlns:xlink="http://www.w3.org/1999/xlink"><linearGradient id="a" x1="50%" x2="50%" y1="0%" y2="100%"><stop offset="0" stop-color="#91b1d7"/><stop offset="1" stop-color="#c0d4ec" stop-opacity="0"/></linearGradient><mask id="b" fill="#fff"><rect fill="#fff" fill-rule="evenodd" height="56" rx="4" width="104"/></mask><g fill="none" fill-rule="evenodd"><g transform="translate(42 65)"><path d="m0 0h20v10h-20z" fill="#c0d4ec"/><path d="m0 0h20v10h-20z" fill="url(#a)" opacity=".399128"/></g><path d="m37.9645002 75h28.0709996c2.3508354 0 4.562959 1.1126449 5.9645002 3h-40c1.4015412-1.8873551 3.6136648-3 5.9645002-3z" fill="#e0eeff"/><rect fill="#e0eeff" height="65" rx="4" width="104"/><rect height="53" rx="4" stroke="#314d82" stroke-width="3" width="101" x="1.5" y="1.5"/><g mask="url(#b)"><g transform="translate(3 3)"><path d="m1 0h96c.5522847 0 1 .44771525 1 1v7h-98v-7c0-.55228475.44771525-1 1-1z" fill="#e6ecf6"/><path d="m4.5 5.5c.82842712 0 1.5-.67157288 1.5-1.5s-.67157288-1.5-1.5-1.5-1.5.67157288-1.5 1.5.67157288 1.5 1.5 1.5z" fill="#ff3f3f"/><path d="m10.5 5.5c.8284271 0 1.5-.67157288 1.5-1.5s-.6715729-1.5-1.5-1.5c-.82842712 0-1.5.67157288-1.5 1.5s.67157288 1.5 1.5 1.5z" fill="#ff943f"/><path d="m16.5 5.5c.8284271 0 1.5-.67157288 1.5-1.5s-.6715729-1.5-1.5-1.5-1.5.67157288-1.5 1.5.6715729 1.5 1.5 1.5z" fill="#1ac46f"/></g></g></g></svg>

<?xml version="1.0" encoding="UTF-8"?>
<svg width="104px" height="78px" viewBox="0 0 104 78" version="1.1" xmlns="http://www.w3.org/2000/svg" xmlns:xlink="http://www.w3.org/1999/xlink">
    <title>image_computer</title>
    <defs>
        <linearGradient x1="50%" y1="0%" x2="50%" y2="100%" id="linearGradient-1">
            <stop stop-color="#91B1D7" offset="0%"></stop>
            <stop stop-color="#C0D4EC" stop-opacity="0" offset="100%"></stop>
        </linearGradient>
        <rect id="path-2" x="0" y="0" width="104" height="56" rx="4"></rect>
    </defs>
    <g id="Dashboard" stroke="none" stroke-width="1" fill="none" fill-rule="evenodd">
        <g id="02-开发环境-创建环境-创建共享开发环境-第一步填充态-未选择基础开发空间" transform="translate(-976.000000, -128.000000)">
            <g id="创建共享开发环境" transform="translate(244.000000, 104.000000)">
                <g id="Right" transform="translate(420.000000, 0.000000)">
                    <g id="终端" transform="translate(312.000000, 24.000000)">
                        <g id="编组-3" transform="translate(42.000000, 65.000000)">
                            <rect id="矩形" fill="#C0D4EC" x="0" y="0" width="20" height="10"></rect>
                            <rect id="矩形" fill="url(#linearGradient-1)" opacity="0.399128" x="0" y="0" width="20" height="10"></rect>
                        </g>
                        <path d="M37.9645002,75 L66.0354998,75 C68.3863352,75 70.5984588,76.1126449 72,78 L72,78 L72,78 L32,78 C33.4015412,76.1126449 35.6136648,75 37.9645002,75 Z" id="矩形备份-7" fill="#E0EEFF"></path>
                        <g id="编组-2">
                            <rect id="矩形" fill="#E0EEFF" x="0" y="0" width="104" height="65" rx="4"></rect>
                            <g id="编组-7">
                                <mask id="mask-3" fill="white">
                                    <use xlink:href="#path-2"></use>
                                </mask>
                                <rect stroke="#314D82" stroke-width="3" x="1.5" y="1.5" width="101" height="53" rx="4"></rect>
                                <g id="编组-5" mask="url(#mask-3)">
                                    <g transform="translate(3.000000, 3.000000)">
                                        <path d="M1,0 L97,0 C97.5522847,7.63596298e-15 98,0.44771525 98,1 L98,8 L98,8 L0,8 L0,1 C-2.8967998e-16,0.44771525 0.44771525,-9.5692398e-18 1,0 Z" id="矩形" fill="#E6ECF6"></path>
                                        <path d="M4.5,5.5 C5.32842712,5.5 6,4.82842712 6,4 C6,3.17157288 5.32842712,2.5 4.5,2.5 C3.67157288,2.5 3,3.17157288 3,4 C3,4.82842712 3.67157288,5.5 4.5,5.5 Z" id="椭圆形" fill="#FF3F3F"></path>
                                        <path d="M10.5,5.5 C11.3284271,5.5 12,4.82842712 12,4 C12,3.17157288 11.3284271,2.5 10.5,2.5 C9.67157288,2.5 9,3.17157288 9,4 C9,4.82842712 9.67157288,5.5 10.5,5.5 Z" id="椭圆形备份-2" fill="#FF943F"></path>
                                        <path d="M16.5,5.5 C17.3284271,5.5 18,4.82842712 18,4 C18,3.17157288 17.3284271,2.5 16.5,2.5 C15.6715729,2.5 15,3.17157288 15,4 C15,4.82842712 15.6715729,5.5 16.5,5.5 Z" id="椭圆形备份-3" fill="#1AC46F"></path>
                                    </g>
                                </g>
                            </g>
                        </g>
                    </g>
                </g>
            </g>
        </g>
    </g>
</svg>
